packages/icons/svg/Fill/mic.svg

<svg fill="none" height="24" viewBox="0 0 24 24" width="24" xmlns="http://www.w3.org/2000/svg"><path clip-rule="evenodd" d="m16 11c0 2.206-1.794 4-4 4-2.20598 0-3.99998-1.794-3.99998-4v-5c0-2.206 1.794-4 3.99998-4 2.206 0 4 1.794 4 4zm2-.9999c.553 0 1 .448 1 1 0 3.52-2.613 6.432-6 6.92v2.08h2.105c.493 0 .895.402.895.895v.21c0 .493-.402.895-.895.895h-6.20998c-.493 0-.895-.402-.895-.895v-.21c0-.493.402-.895.895-.895h2.10498v-2.08c-3.38698-.488-5.99998-3.4-5.99998-6.92 0-.552.447-1 1-1s1 .448 1 1c0 2.757 2.243 5 4.99998 5 2.757 0 5-2.243 5-5 0-.552.447-1 1-1z" fill="#6b7280" fill-rule="evenodd"/></svg>

<svg width="24" height="24" viewBox="0 0 24 24" fill="none" xmlns="http://www.w3.org/2000/svg">
<g id="Icon/Fill/mic">
<path id="Mask" fill-rule="evenodd" clip-rule="evenodd" d="M16 11C16 13.206 14.206 15 12 15C9.794 15 8 13.206 8 11V6C8 3.794 9.794 2 12 2C14.206 2 16 3.794 16 6V11ZM18 10C18.553 10 19 10.448 19 11C19 14.52 16.387 17.432 13 17.92V20H15.105C15.598 20 16 20.402 16 20.895V21.105C16 21.598 15.598 22 15.105 22H8.895C8.402 22 8 21.598 8 21.105V20.895C8 20.402 8.402 20 8.895 20H11V17.92C7.613 17.432 5 14.52 5 11C5 10.448 5.447 10 6 10C6.553 10 7 10.448 7 11C7 13.757 9.243 16 12 16C14.757 16 17 13.757 17 11C17 10.448 17.447 10 18 10Z" fill="#000000"/>
</g>
</svg>
